X: 1930
T: Vardım ki Yurdundan Ayağ
C: Nevres Paşa
O: Turkey
F: http://compmusic.upf.edu/node/140
N: sehnaz--divan--sofyan--vardim_ki--nevres_pasa
N: makam= sehnaz
N: form= divan
N: usul= sofyan = 4/4
M: 4/4
L: 1/16
K: C _7/8B ^1/4f ^c ^g
Q: 1/4=66
%%MIDI tuningsystem comma53
A2AA c2d2 e6d2  | e^3/4f=ga g^1/4fed c4 d3/2c/dB  | \
w:  ARANAĞME  |   | 
A4 c2d2 e6d2  | 
w:   | 
d2=g2 ^f2a2 g2=f2 e2d2  | c3B A2c2 B2BA =G2BA  | \
w:   |   | 
A2AA c2d2 e6d2  | 
w:  ARANAĞME  | 
e^3/4f=ga g^1/4fed c4 d3/2c/dB  | \
w:   | 
A4 c2d2 e6d2  | d2=g2 ^f2a2 g2=f2 e2d2  | 
w:   |   | 
c3B A2c2 B2BA =G2BA  | A2a14  | a2z2 a2a2 a2a6  | \
w:   |  *  Ah   |  *  var dım  ki  yur  | 
a2a4a2 a2=b6  | 
w:  *  dun dan_ a yağ   | 
{d'}=c'=bag fed2 {a}=g2f2 e2d2  | \
w:  *  gö  | 
c2B4BA A8  | A4 B3/2A/Bc A4 z=g^f^1/4f  | 
w:  *  çür *  *  müş    |  *  SAZ  | 
e4 =g2g^3/4f ^2/4f2fe e2z2  | d2e6 e4 =g4  | \
w:  *  Yav ru  *  git *  *  miş   |  ıs sız  kal mış   | 
=f4 {=g}e4 {f}d4 d{g}f{g}e{f}d  | \
w:  o  | 
{e}c2B4BA A8  | 
w:  *  *  ta *  *  ğı    | 
A2AA c2d2 e6d2  | e^3/4f=ga g^1/4fed c4 d3/2c/dB  | \
w:  ARANAĞME  |   | 
A4 c2d2 e6d2  | 
w:   | 
d2=g2 ^f2a2 g2=f2 e2d2  | c3B A2c2 B2BA =G2BA  | \
w:   |   | 
A2AA c2d2 e6d2  | 
w:  ARANAĞME  | 
e^3/4f=ga g^1/4fed c4 d3/2c/dB  | \
w:   | 
A4 c2d2 e6d2  | d2=g2 ^f2a2 g2=f2 e2d2  | 
w:   |   | 
c3B A2c2 B2BA =G2BA  | A2a14  | a2z2 a2a2 a2a6  | \
w:   |  *  Ah   |  *  cam lar  şi kest   | 
a2a4a2 a2=b6  | 
w:  *  ol muş  mey ler   | 
{d'}=c'=bag fed2 {a}=g2f2 e2d2  | \
w:  *  dö  | 
c2B4BA A8  | A4 B3/2A/Bc A4 z=g^3/4f^1/4f  | 
w:  *  kül *  *  müş    |  *  SAZ  | 
e4 =g2g^3/4f ^2/4f2{g}fe e2z2  | d2e6 e4 =g4  | \
w:  *  Sâ kî *  ler  *  *  *  mec  |  lis ten  çek miş   | 
=f4 {=g}e4 {f}d4 d{g}f{g}e{f}d  | \
w:  a  | 
{e}c2B4BA A8  | 
w:  *  *  ya *  *  ğı    | 
A2=G2 d3/2f/ed d8  | z2d4d2 d2d6  | z2d2 d4 d2{a}=g2 f2e2  | \
w:  SAZ  |  Cam lar  şi kest   |  ol muş  mey *  ler   | 
z2{=g}f2 e2d2 c2BA e2d{e}c  | 
w:  *  dö *  *  kül  | 
{d}c12 d3/2c/{d}BA  | A4 a2a2 a4 a3f  | \
w:  *  müş    |  *  Sâ kî ler  mec  | 
f2a4a2 a2=b6  | =c'=bag fed2 =g2=f2 e2d2  | 
w:  *  lis ten  çek miş   |  a  | 
c2B4A2 A8  | A2AA c2d2 e6d2  | e^3/4f=ga g^1/4fed c4 d3/2c/dB  | 
w:  *  ya *  ğı    |  ARANAĞME  |   | 
A4 c2d2 e6d2  | d2=g2 ^f2a2 g2=f2 e2d2  | \
w:   |   | 
c3B A2c2 B2BA =G2BA  | 
w:   | 
A2AA c2d2 e6d2  | e^3/4f=ga g^1/4fed c4 d3/2c/dB  | \
w:  ARANAĞME  |   | 
A4 c2d2 e6d2  | 
w:   | 
d2=g2 ^f2a2 g2=f2 e2d2  | c3B A2c2 B2BA =G2BA  | \
w:   |   | 
A2a14  | a2z2 a2a2 a2a6  | 
w:  *  Ah   |  *  var dım  ki  yur  | 
a2a4a2 a2=b6  | {d'}=c'=bag fed2 {a}=g2f2 e2d2  | \
w:  *  dun dan_ a yağ   |  *  gö  | 
c2B4BA A8  | 
w:  *  çür *  *  müş    | 
A4 B3/2A/Bc A4 z=g^f^1/4f  | e4 =g2g^3/4f ^2/4f2fe e2z2  | \
w:  *  SAZ  |  *  Yav ru  *  git *  *  miş   | 
d2e6 e4 =g4  | 
w:  ıs sız  kal mış   | 
=f4 {=g}e4 {f}d4 d{g}f{g}e{f}d  | \
w:  o  | 
{e}c2B4BA A8  | A2AA c2d2 e6d2  | e^3/4f=ga g^1/4fed c4 d3/2c/dB  | 
w:  *  *  ta *  *  ğı    |  ARANAĞME  |   | 
A4 c2d2 e6d2  | d2=g2 ^f2a2 g2=f2 e2d2  | \
w:   |   | 
c3B A2c2 B2BA =G2BA  | 
w:   | 
A2AA c2d2 e6d2  | e^3/4f=ga g^1/4fed c4 d3/2c/dB  | \
w:  ARANAĞME  |   | 
A4 c2d2 e6d2  | 
w:   | 
d2=g2 ^f2a2 g2=f2 e2d2  | c3B A2c2 B2BA =G2BA  | \
w:   |   | 
A2a14  | a2z2 a2a2 a2a6  | 
w:  *  Ah   |  *  cam lar  şi kest   | 
a2a4a2 a2=b6  | {d'}=c'=bag fed2 {a}=g2f2 e2d2  | \
w:  *  ol muş  mey ler   |  *  dö  | 
c2B4BA A8  | 
w:  *  kül *  *  müş    | 
A4 B3/2A/Bc A4 z=g^3/4f^1/4f  | e4 =g2g^3/4f ^2/4f2{g}fe e2z2  | \
w:  *  SAZ  |  *  Sâ kî *  ler  *  *  *  mec  | 
d2e6 e4 =g4  | 
w:  lis ten  çek miş   | 
=f4 {=g}e4 {f}d4 d{g}f{g}e{f}d  | \
w:  a  | 
{e}c2B4BA A8  | A2=G2 d3/2f/ed d8  | \
w:  *  *  ya *  *  ğı    |  SAZ  | 
z2d4d2 d2d6  | 
w:  Cam lar  şi kest   | 
z2d2 d4 d2{a}=g2 f2e2  | z2{=g}f2 e2d2 c2BA e2d{e}c  | \
w:  ol muş  mey *  ler   |  *  dö *  *  kül  | 
{d}c12 d3/2c/{d}BA  | 
w:  *  müş    | 
A4 a2a2 a4 a3f  | f2a4a2 a2=b6  | =c'=bag fed2 =g2=f2 e2d2  | 
w:  *  Sâ kî ler  mec  |  *  lis ten  çek miş   |  a  | 
c2B4A2 A8  | |


